X:1
T:Partition sans titre
C:Compositeur / Arrangeur
L:1/8
M:4/4
I:linebreak $
K:D
V:1 treble nm="Violon" snm="Vln."
V:1
"Em" E2 EF E2 EB |"D" AFED FAAd |"Em" BdAB defe |1"D" d2 DD FEED :|2"D" d2 DD"Em" FE E2 |: %5
"Em" Beef e2 de |"D" f2 ed Bdde |"Em" Beef edef |"D" afed"Em" e2 ef |"D" abaf defe | dBAF ABde | %11
 faef defe |1 d2 DD"Em" FE E2 :|2 d2 DD FEED |] %14
